X: 326
T: Willow on the Lake
B: canberra pickers and fiddlers
B: tunes
M:3/4
L:1/8
R: irregular
Q: 1/4=100
K:G
V:1 
ABc |: "G"d4 d2B2- | BB"D"cB A2"G"G2- | GA"G"BG DDEG | B4- BABc |\
"G"d4 d2B2- | BB"D"cB A2"G"G2- | GA"G"BG DDEF | G4- GABc |]
"^B"|: "D"A3B A2G2 | "C"EEGE D2B,2- | "G"B,DED G2A2 | B3c BDEG |\
"D"A3B A2G2 | "C"EEGE D2B,2- | "G"B,DED B2A2 |1. G3G GDEG :|2. G4- GABc |]
% abcbook-tune_id 63da5934463a27c57aefe310
% abcbook-tune_composer_id 
% abcbook-link-0 https://www.youtube.com/watch?v=BWcIK3z_hmo
% abcbook-boost 0
% abcbook-difficulty 0
% abcbook-tags canberra pickers and fiddlers,old time tunes,© free
% abcbook-tablature 
% abcbook-transpose 
% abcbook-tuning GDAD
% abcbook-lastupdated 1732672457250
% abcbook-src-url https://tunebook.net/scrape/tunes.abc
% abcbook-soundfonts 
% abcbook-repeats 1
%%gchordfont "itim-music,Itim" 20

